!!!COM: Music21
!!!OTL: O premio
!!!OMV: pezas_muineiras_o-premio_o-premio-partitura.musicxml
**kern
*part1
*staff1
*I"Bagpipes
*I'Bag
*clefG^2
*k[]
*M6/8
=1
!LO:TX:a:t=Presto
*MM180
!LO:TX:a:t=[quarter]=180
4.r
8ggL
8aa
8ggJ
=||
4.gg
8ggL
8aa
8ggJ
=
4.gg
8ggL
8aa
8ggJ
=
8ffL
8gg
8ffJ
8eeL
8ff
8eeJ
=
4.dd
8ffL
8gg
8ffJ
=
4.ff
8ffL
8gg
8ffJ
=
4.ff
8ffL
8gg
8ffJ
!!linebreak:original
=
8eeL
8ff
8eeJ
8ddL
8ee
8ddJ
!!linebreak:original
=
4.cc
8ggL
8aa
8ggJ
=||
4.gg
8ggL
8aa
8ggJ
=
4.gg
8ggL
8aa
8ggJ
=
8ffL
8gg
8ffJ
8eeL
8ff
8eeJ
=
4.dd
8ffL
8gg
8ffJ
=
4.ff
8ffL
8gg
8ffJ
=
4.ff
8ffL
8gg
8ffJ
=
8eeL
8ff
8eeJ
8ddL
8ee
8ddJ
!!linebreak:original
=||
4cc
8r
8ccL
8b
8ccJ
=||
8ddL
8cc
8ddJ
8eeL
8dd
8eeJ
=
8ffL
8ee
8ffJ
8ggL
8aa
8bbJ
=
8cccL
8bb
8aaJ
8bbL
8aa
8bbJ
=
4aa
8gg
8ccL
8b
8ccJ
!!linebreak:original
=
8ddL
8cc
8ddJ
8eeL
8dd
8eeJ
=
8ffL
8ee
8ffJ
8ggL
8aa
8ggJ
=
8bbL
8aa
8ggJ
8ffL
8ee
8ddJ
=
4cc
8r
8ccL
8b
8ccJ
=||
8ddL
8cc
8ddJ
8eeL
8dd
8eeJ
=
8ffL
8ee
8ffJ
8ggL
8aa
8bbJ
=
8cccL
8bb
8aaJ
8bbL
8aa
8bbJ
!!linebreak:original
=
4aa
8gg
8ccL
8b
8ccJ
!!pagebreak:original
=
8ddL
8cc
8ddJ
8eeL
8dd
8eeJ
=
8ffL
8ee
8ffJ
8ggL
8aa
8ggJ
=
8bbL
8aa
8ggJ
8ffL
8ee
8ddJ
=
4cc
8r
8ggL
8aa
8ggJ
=||
4cc
2r
==
*-
!!!system-decoration: s1,s2
